dist/img/svg/icon-footer-inst.svg

<svg width="28" height="28" viewBox="0 0 28 28" fill="none" xmlns="http://www.w3.org/2000/svg">
<rect width="28" height="28" rx="14" fill="#25878A"/>
<path d="M17.4941 6.19995H10.5042C8.13042 6.19995 6.19922 8.13124 6.19922 10.505V17.4949C6.19922 19.8688 8.13042 21.8 10.5042 21.8H17.4941C19.868 21.8 21.7992 19.8687 21.7992 17.4949V10.505C21.7993 8.13124 19.868 6.19995 17.4941 6.19995ZM20.4152 17.4949C20.4152 19.1056 19.1048 20.4158 17.4942 20.4158H10.5042C8.89361 20.4159 7.58333 19.1056 7.58333 17.4949V10.505C7.58333 8.89444 8.89361 7.58406 10.5042 7.58406H17.4941C19.1047 7.58406 20.4151 8.89444 20.4151 10.505V17.4949H20.4152Z" fill="white"/>
<path d="M13.9996 10.0999C11.8491 10.0999 10.0996 11.8494 10.0996 13.9999C10.0996 16.1504 11.8491 17.8999 13.9996 17.8999C16.1501 17.8999 17.8996 16.1504 17.8996 13.9999C17.8996 11.8494 16.1501 10.0999 13.9996 10.0999ZM13.9996 16.5569C12.5897 16.5569 11.4425 15.4098 11.4425 13.9999C11.4425 12.5898 12.5896 11.4427 13.9996 11.4427C15.4096 11.4427 16.5567 12.5898 16.5567 13.9999C16.5567 15.4098 15.4095 16.5569 13.9996 16.5569Z" fill="white"/>
<path d="M18 9C17.7373 9 17.4792 9.10636 17.2936 9.29273C17.1072 9.47818 17 9.73636 17 10C17 10.2628 17.1073 10.5209 17.2936 10.7073C17.4791 10.8927 17.7373 11 18 11C18.2636 11 18.5209 10.8927 18.7073 10.7073C18.8936 10.5209 19 10.2627 19 10C19 9.73636 18.8936 9.47818 18.7073 9.29273C18.5218 9.10636 18.2636 9 18 9Z" fill="white"/>
</svg>

<svg width="28" height="28" viewBox="0 0 28 28" fill="none" xmlns="http://www.w3.org/2000/svg"><rect width="28" height="28" rx="14" fill="#25878A"/><path d="M17.494 6.2h-6.99A4.31 4.31 0 006.2 10.505v6.99a4.31 4.31 0 004.305 4.305h6.99a4.31 4.31 0 004.305-4.305v-6.99A4.31 4.31 0 0017.494 6.2zm2.921 11.295c0 1.61-1.31 2.92-2.92 2.92h-6.99a2.924 2.924 0 01-2.922-2.92v-6.99c0-1.61 1.31-2.92 2.921-2.92h6.99c1.61 0 2.921 1.31 2.921 2.92v6.99z" fill="#fff"/><path d="M14 10.1c-2.15 0-3.9 1.75-3.9 3.9s1.75 3.9 3.9 3.9 3.9-1.75 3.9-3.9-1.75-3.9-3.9-3.9zm0 6.457A2.56 2.56 0 0111.443 14 2.56 2.56 0 0114 11.443 2.56 2.56 0 0116.557 14 2.56 2.56 0 0114 16.557zM18 9a1.004 1.004 0 00-1 1 1.006 1.006 0 001 1 1.003 1.003 0 00.707-1.707A1.004 1.004 0 0018 9z" fill="#fff"/></svg>
